rtdata/images/themed/svg/distortion-auto.svg

<?xml version="1.0" encoding="UTF-8" standalone="no"?>
<!-- Created with Inkscape (http://www.inkscape.org/) -->

<svg
   xmlns:dc="http://purl.org/dc/elements/1.1/"
   xmlns:cc="http://creativecommons.org/ns#"
   xmlns:rdf="http://www.w3.org/1999/02/22-rdf-syntax-ns#"
   xmlns:svg="http://www.w3.org/2000/svg"
   xmlns="http://www.w3.org/2000/svg"
   xmlns:sodipodi="http://sodipodi.sourceforge.net/DTD/sodipodi-0.dtd"
   xmlns:inkscape="http://www.inkscape.org/namespaces/inkscape"
   width="24px"
   height="24px"
   viewBox="0 0 24 24"
   version="1.1"
   id="SVGRoot"
   inkscape:export-filename="/tmp/template.png"
   inkscape:export-xdpi="96"
   inkscape:export-ydpi="96"
   inkscape:version="0.92.2 2405546, 2018-03-11"
   sodipodi:docname="distortion-auto.svg">
  <sodipodi:namedview
     id="base"
     pagecolor="#E0E1E2"
     bordercolor="#666768"
     borderopacity="1.0"
     inkscape:pageopacity="0"
     inkscape:pageshadow="2"
     inkscape:zoom="34.25"
     inkscape:cx="12"
     inkscape:cy="12"
     inkscape:document-units="px"
     inkscape:current-layer="layer1"
     showgrid="true"
     inkscape:window-width="1920"
     inkscape:window-height="1019"
     inkscape:window-x="0"
     inkscape:window-y="0"
     inkscape:window-maximized="1"
     inkscape:grid-bbox="true"
     inkscape:pagecheckerboard="false"
     inkscape:snap-bbox="true"
     inkscape:bbox-nodes="true"
     inkscape:snap-others="false"
     inkscape:object-nodes="false"
     inkscape:snap-grids="true"
     inkscape:snap-bbox-midpoints="false">
    <inkscape:grid
       type="xygrid"
       id="grid1374"
       originx="1"
       originy="1"
       empspacing="11"
       dotted="false" />
  </sodipodi:namedview>
  <defs
     id="defs815" />
  <metadata
     id="metadata818">
    <rdf:RDF>
      <cc:Work
         rdf:about="">
        <dc:format>image/svg+xml</dc:format>
        <dc:type
           rdf:resource="http://purl.org/dc/dcmitype/StillImage" />
        <dc:title />
        <dc:creator>
          <cc:Agent>
            <dc:title>Maciej Dworak</dc:title>
          </cc:Agent>
        </dc:creator>
        <dc:rights>
          <cc:Agent>
            <dc:title />
          </cc:Agent>
        </dc:rights>
        <dc:description>RawTherapee icon.</dc:description>
        <cc:license
           rdf:resource="http://creativecommons.org/licenses/by-sa/4.0/" />
      </cc:Work>
      <cc:License
         rdf:about="http://creativecommons.org/licenses/by-sa/4.0/">
        <cc:permits
           rdf:resource="http://creativecommons.org/ns#Reproduction" />
        <cc:permits
           rdf:resource="http://creativecommons.org/ns#Distribution" />
        <cc:requires
           rdf:resource="http://creativecommons.org/ns#Notice" />
        <cc:requires
           rdf:resource="http://creativecommons.org/ns#Attribution" />
        <cc:permits
           rdf:resource="http://creativecommons.org/ns#DerivativeWorks" />
        <cc:requires
           rdf:resource="http://creativecommons.org/ns#ShareAlike" />
      </cc:License>
    </rdf:RDF>
  </metadata>
  <g
     id="layer1"
     inkscape:groupmode="layer"
     inkscape:label="Layer 1">
    <path
       style="color:#000000;font-style:normal;font-variant:normal;font-weight:normal;font-stretch:normal;font-size:medium;line-height:normal;font-family:'Bitstream Vera Sans';-inkscape-font-specification:'Bitstream Vera Sans';text-indent:0;text-align:start;text-decoration:none;text-decoration-line:none;letter-spacing:normal;word-spacing:normal;text-transform:none;writing-mode:lr-tb;direction:ltr;text-anchor:start;display:inline;overflow:visible;visibility:visible;opacity:0.3;fill:#2a7fff;fill-opacity:1;stroke:none;stroke-width:0.72779667;marker:none;enable-background:accumulate"
       d="M 2.7324219 10.466797 C 2.8664433 11.324961 2.9046109 12.195226 2.7832031 13.068359 C 2.5578634 14.86295 1.8840469 16.566826 1.1601562 18.212891 C 1.1088982 18.503715 1.0932627 19.01928 1.3671875 19.214844 C 1.9987238 19.571255 2.7393686 19.160882 3.2890625 19.087891 C 5.8393725 18.435152 8.4631567 17.946848 11.099609 17.839844 A 1.414355 1.414355 0 0 0 10.792969 15.9375 C 10.282483 15.961257 9.7719917 15.994499 9.2636719 16.046875 C 9.2712719 15.657299 9.2759109 15.279015 9.2792969 14.908203 L 9.2832031 14.908203 L 6.4746094 13.003906 C 5.8871228 13.008733 5.3000311 13.020719 4.7128906 12.996094 C 4.7523674 12.61409 4.7704998 12.229735 4.7675781 11.845703 L 2.7324219 10.466797 z M 4.3671875 14.908203 L 7.3613281 14.908203 L 7.3613281 16.300781 C 6.1367495 16.49137 4.9201355 16.73163 3.7167969 17.023438 C 3.973593 16.331103 4.1940008 15.626652 4.3671875 14.908203 z "
       id="path4473" />
    <path
       inkscape:connector-curvature="0"
       id="path986"
       d="M 2.0253906,4.5 2.0039056,4.5078 C 1.7275596,4.55203 1.4823264,4.5174 1.330078,4.748037 1.1778296,4.97868 1.1491382,5.48189 1.2207033,5.773427 c 0.080002,0.370521 0.344078,0.665265 0.4374999,1.033203 0.4693901,1.174627 0.8781079,2.404424 1.0742186,3.660157 l 2.0351563,1.378906 c -0.00284,-0.373637 -0.025588,-0.747956 -0.068359,-1.119141 H 7.361328 v 2.28125 c -0.295641,-0.0028 -0.591022,-0.0063 -0.886719,-0.0039 l 2.808594,1.904297 h 5.230469 v 1.107422 c -1.236271,-0.113987 -2.48056,-0.135837 -3.720703,-0.07813 a 1.414355,1.414355 0 0 1 0.30664,1.902344 c 1.319527,-0.05355 2.641206,-0.01885 3.958985,0.152344 2.43534,0.273017 4.831276,0.830818 7.185547,1.507812 0.132596,-0.209473 0.117017,-0.134573 0.419921,-0.283203 0.302906,-0.14863 0.245189,-1.10836 0,-1.425781 C 22.141935,16.680108 21.735535,15.509575 21.435547,14.31835 21.07312,12.798067 21.022228,11.179759 21.412107,9.6621 21.71115,8.312612 22.225988,7.021944 22.808592,5.773428 22.885152,5.476736 22.817892,4.844005 22.63867,4.718741 22.042145,4.39249 21.386849,4.707731 20.82617,4.787101 17.0036,5.791632 13.01082,6.417292 9.056641,5.935538 6.67531,5.675839 4.3334793,5.134572 2.0253906,4.5 Z m 18.2324214,2.392578 -0.01172,0.03516 -0.002,0.0039 c -0.22587,0.62336 -0.433693,1.253101 -0.587891,1.898437 H 16.408203 V 7.640619 C 17.703306,7.456476 18.98653,7.194525 20.257812,6.892572 Z M 3.7421874,6.910158 3.9101563,6.951178 C 5.0503877,7.223078 6.201861,7.448206 7.361328,7.623053 V 8.830084 H 4.3398438 C 4.1824206,8.177852 3.9718529,7.54003 3.7421874,6.910156 Z M 9.259766,7.871096 c 0.02971,0.0031 0.06013,0.0067 0.08984,0.0098 1.715698,0.167029 3.44809,0.168489 5.164063,0.0039 V 8.8301 H 9.255856 c 9.7e-5,-0.316258 0.0011,-0.636128 0.0039,-0.958984 z m 0.0059,2.855468 h 5.248047 v 2.294922 c -0.603288,0.03044 -4.151509,-0.01531 -5.230469,0.06445 -0.0031,-0.805696 -0.01092,-1.585466 -0.01758,-2.359376 z m 7.142578,0 h 2.890625 c -0.09363,0.756787 -0.09178,1.524973 -0.01563,2.283204 h -2.875 z m 0,4.181641 h 3.21875 c 0.169088,0.712935 0.392889,1.410204 0.644531,2.097656 -1.275689,-0.305989 -2.563419,-0.566493 -3.863281,-0.748047 z"
       style="color:#000000;font-style:normal;font-variant:normal;font-weight:normal;font-stretch:normal;font-size:medium;line-height:normal;font-family:'Bitstream Vera Sans';-inkscape-font-specification:'Bitstream Vera Sans';text-indent:0;text-align:start;text-decoration:none;text-decoration-line:none;letter-spacing:normal;word-spacing:normal;text-transform:none;writing-mode:lr-tb;direction:ltr;text-anchor:start;display:inline;overflow:visible;visibility:visible;opacity:0.7;fill:#2a7fff;fill-opacity:1;stroke:none;stroke-width:0.72779661;marker:none;enable-background:accumulate" />
    <path
       sodipodi:nodetypes="cccccc"
       inkscape:connector-curvature="0"
       id="Symbol-4-6-8"
       d="M 1,14.357876 V 11 L 9.925089,17.051146 1,23 v -3.298368 z"
       style="display:inline;opacity:1;fill:#008000;fill-opacity:1;stroke:none;stroke-width:0.04999533" />
  </g>
</svg>

<?xml version="1.0" encoding="UTF-8" standalone="no"?>
<!-- Created with Inkscape (http://www.inkscape.org/) -->

<svg
   xmlns:dc="http://purl.org/dc/elements/1.1/"
   xmlns:cc="http://creativecommons.org/ns#"
   xmlns:rdf="http://www.w3.org/1999/02/22-rdf-syntax-ns#"
   xmlns:svg="http://www.w3.org/2000/svg"
   xmlns="http://www.w3.org/2000/svg"
   xmlns:sodipodi="http://sodipodi.sourceforge.net/DTD/sodipodi-0.dtd"
   xmlns:inkscape="http://www.inkscape.org/namespaces/inkscape"
   width="24px"
   height="24px"
   viewBox="0 0 24 24"
   version="1.1"
   id="SVGRoot"
   inkscape:export-filename="/tmp/template.png"
   inkscape:export-xdpi="96"
   inkscape:export-ydpi="96"
   inkscape:version="0.92.2 2405546, 2018-03-11"
   sodipodi:docname="distortion-auto.svg">
  <sodipodi:namedview
     id="base"
     pagecolor="#E0E1E2"
     bordercolor="#666768"
     borderopacity="1.0"
     inkscape:pageopacity="0"
     inkscape:pageshadow="2"
     inkscape:zoom="2.109375"
     inkscape:cx="-49.166564"
     inkscape:cy="55.585713"
     inkscape:document-units="px"
     inkscape:current-layer="layer1"
     showgrid="false"
     inkscape:window-width="1920"
     inkscape:window-height="1019"
     inkscape:window-x="0"
     inkscape:window-y="0"
     inkscape:window-maximized="1"
     inkscape:grid-bbox="true"
     inkscape:pagecheckerboard="false"
     inkscape:snap-bbox="true"
     inkscape:bbox-nodes="true"
     inkscape:snap-others="false"
     inkscape:object-nodes="false"
     inkscape:snap-grids="true"
     inkscape:snap-bbox-midpoints="false">
    <inkscape:grid
       type="xygrid"
       id="grid1374"
       originx="1"
       originy="1"
       empspacing="11"
       dotted="false" />
  </sodipodi:namedview>
  <defs
     id="defs815" />
  <metadata
     id="metadata818">
    <rdf:RDF>
      <cc:Work
         rdf:about="">
        <dc:format>image/svg+xml</dc:format>
        <dc:type
           rdf:resource="http://purl.org/dc/dcmitype/StillImage" />
        <dc:title></dc:title>
        <dc:creator>
          <cc:Agent>
            <dc:title>Maciej Dworak</dc:title>
          </cc:Agent>
        </dc:creator>
        <dc:rights>
          <cc:Agent>
            <dc:title />
          </cc:Agent>
        </dc:rights>
        <dc:description>RawTherapee icon.</dc:description>
        <cc:license
           rdf:resource="http://creativecommons.org/licenses/by-sa/4.0/" />
      </cc:Work>
      <cc:License
         rdf:about="http://creativecommons.org/licenses/by-sa/4.0/">
        <cc:permits
           rdf:resource="http://creativecommons.org/ns#Reproduction" />
        <cc:permits
           rdf:resource="http://creativecommons.org/ns#Distribution" />
        <cc:requires
           rdf:resource="http://creativecommons.org/ns#Notice" />
        <cc:requires
           rdf:resource="http://creativecommons.org/ns#Attribution" />
        <cc:permits
           rdf:resource="http://creativecommons.org/ns#DerivativeWorks" />
        <cc:requires
           rdf:resource="http://creativecommons.org/ns#ShareAlike" />
      </cc:License>
    </rdf:RDF>
  </metadata>
  <g
     id="layer1"
     inkscape:groupmode="layer"
     inkscape:label="Layer 1">
    <g
       id="g2962"
       transform="matrix(0.03657136,0,0,0.03657136,10.902008,7.6984958)">
      <path
         style="color:#000000;font-style:normal;font-variant:normal;font-weight:normal;font-stretch:normal;font-size:medium;line-height:normal;font-family:'Bitstream Vera Sans';-inkscape-font-specification:'Bitstream Vera Sans';text-indent:0;text-align:start;text-decoration:none;text-decoration-line:none;letter-spacing:normal;word-spacing:normal;text-transform:none;writing-mode:lr-tb;direction:ltr;text-anchor:start;display:inline;overflow:visible;visibility:visible;opacity:0.7;fill:#2a7fff;fill-opacity:1;stroke:none;stroke-width:0.72779661;marker:none;enable-background:accumulate"
         d="M 2.0253906 4.5 L 2.0039062 4.5078125 C 1.7275595 4.5520386 1.4823265 4.5174045 1.3300781 4.7480469 C 1.1778297 4.9786896 1.1491384 5.4819005 1.2207031 5.7734375 C 1.3007051 6.1439583 1.5647812 6.4387026 1.6582031 6.8066406 C 2.0242615 7.7226843 2.3447878 8.675259 2.5664062 9.6445312 L 4.7226562 11.105469 C 4.7127443 10.979347 4.7137004 10.85224 4.6992188 10.726562 L 7.3613281 10.726562 L 7.3613281 12.894531 L 10.332031 14.908203 L 14.513672 14.908203 L 14.513672 16.015625 C 13.536066 15.925488 12.553836 15.896574 11.572266 15.914062 A 2.0002 2.0002 0 0 1 11.771484 17.818359 C 12.867847 17.802111 13.964346 17.850032 15.058594 17.992188 C 17.493934 18.265205 19.88987 18.823006 22.244141 19.5 C 22.376737 19.290527 22.361158 19.365427 22.664062 19.216797 C 22.966968 19.068167 22.909251 18.108437 22.664062 17.791016 C 22.141935 16.680117 21.735535 15.509584 21.435547 14.318359 C 21.07312 12.798076 21.022228 11.179768 21.412109 9.6621094 C 21.711152 8.3126207 22.22599 7.0219534 22.808594 5.7734375 C 22.885152 5.4767454 22.817923 4.8440138 22.638672 4.71875 C 22.042147 4.392499 21.386851 4.7077438 20.826172 4.7871094 C 17.0036 5.7916416 13.01082 6.4173007 9.0566406 5.9355469 C 6.6753102 5.6758386 4.3334795 5.1345723 2.0253906 4.5 z M 20.257812 6.8925781 L 20.246094 6.9277344 L 20.244141 6.9316406 C 20.018271 7.5550006 19.810448 8.1847416 19.65625 8.8300781 L 16.408203 8.8300781 L 16.408203 7.640625 C 17.703306 7.456482 18.98653 7.1945307 20.257812 6.8925781 z M 3.7421875 6.9101562 L 3.9101562 6.9511719 C 5.0503877 7.2230718 6.2018615 7.4481996 7.3613281 7.6230469 L 7.3613281 8.8300781 L 4.3398438 8.8300781 C 4.1824206 8.1778523 3.9718529 7.54003 3.7421875 6.9101562 z M 9.2597656 7.8710938 C 9.2894799 7.8741413 9.3198951 7.8778116 9.3496094 7.8808594 C 11.065307 8.0478887 12.797699 8.0493486 14.513672 7.8847656 L 14.513672 8.8300781 L 9.2558594 8.8300781 C 9.2559564 8.5138199 9.2569934 8.1939504 9.2597656 7.8710938 z M 9.265625 10.726562 L 14.513672 10.726562 L 14.513672 13.021484 C 13.910384 13.05192 10.362163 13.00617 9.2832031 13.085938 C 9.2800908 12.280242 9.2722826 11.500472 9.265625 10.726562 z M 16.408203 10.726562 L 19.298828 10.726562 C 19.205194 11.483349 19.207047 12.251535 19.283203 13.009766 L 16.408203 13.009766 L 16.408203 10.726562 z M 16.408203 14.908203 L 19.626953 14.908203 C 19.796041 15.621138 20.019842 16.318407 20.271484 17.005859 C 18.995795 16.69987 17.708065 16.439366 16.408203 16.257812 L 16.408203 14.908203 z "
         transform="matrix(27.343801,0,0,27.343801,-298.10234,-210.50614)"
         id="path4473" />
    </g>
    <path
       sodipodi:nodetypes="cccccc"
       inkscape:connector-curvature="0"
       id="Symbol-4-6-8"
       d="M 1,14.357876 V 11 L 9.925089,17.051146 1,23 v -3.298368 z"
       style="display:inline;opacity:0.7;fill:#008000;fill-opacity:1;stroke:none;stroke-width:0.04999533" />
  </g>
</svg>
